mono-glyphs/library2-w.svg

<svg xmlns="http://www.w3.org/2000/svg" width="1024" height="1024" fill="none" viewBox="0 0 1024 1024">
  <g clip-path="url(#a)">
    <path fill="#fff" d="M89.263 921.498c-12.37 0-23.987-2.336-34.852-7.008-10.865-4.673-20.393-11.097-28.584-19.274-8.19-8.177-14.626-17.689-19.306-28.535C1.84 855.835-.5 844.237-.5 831.889V191.107c0-12.348 2.34-23.946 7.02-34.792 4.681-10.846 11.116-20.358 19.307-28.535 8.19-8.177 17.719-14.601 28.584-19.273 10.865-4.673 22.482-7.009 34.852-7.009h77.226c12.369 0 23.987 2.336 34.852 7.009 10.865 4.672 20.393 11.096 28.584 19.273 8.191 8.177 14.626 17.689 19.307 28.535 4.68 10.846 7.02 22.444 7.02 34.792v640.782c0 12.348-2.34 23.946-7.02 34.792-4.681 10.846-11.116 20.358-19.307 28.535-8.191 8.177-17.719 14.601-28.584 19.274-10.865 4.672-22.483 7.008-34.852 7.008H89.263Zm308.403 0c-12.369 0-23.987-2.336-34.852-7.008-10.864-4.673-20.392-11.097-28.583-19.274-8.191-8.177-14.71-17.689-19.558-28.535-4.847-10.846-7.271-22.444-7.271-34.792V191.107c0-12.348 2.424-23.946 7.271-34.792 4.848-10.846 11.367-20.358 19.558-28.535 8.191-8.177 17.719-14.601 28.583-19.273 10.865-4.673 22.483-7.009 34.852-7.009h76.725c12.37 0 23.988 2.336 34.852 7.009 10.865 4.672 20.393 11.096 28.584 19.273 8.191 8.177 14.626 17.689 19.307 28.535 4.68 10.846 7.02 22.444 7.02 34.792v640.782c0 12.348-2.34 23.946-7.02 34.792-4.681 10.846-11.116 20.358-19.307 28.535-8.191 8.177-17.719 14.601-28.584 19.274-10.864 4.672-22.482 7.008-34.852 7.008h-76.725Zm221.148-656.801c0-10.012 1.588-19.524 4.764-28.535a94.812 94.812 0 0 1 13.289-25.03 87.8 87.8 0 0 1 20.31-19.774c7.856-5.507 16.631-9.762 26.327-12.766l76.223-22.527c8.024-2.336 16.381-3.505 25.074-3.505 10.029 0 19.724 1.669 29.085 5.006 9.36 3.337 17.97 7.927 25.826 13.767 7.856 5.84 14.542 12.849 20.058 21.026s9.611 17.271 12.286 27.283l148.434 567.192c2.01 7.676 3.01 15.352 3.01 23.028 0 10.012-1.58 19.524-4.76 28.535-3.18 9.011-7.61 17.271-13.29 24.78-5.687 7.509-12.54 14.017-20.563 19.524-8.024 5.506-16.716 9.762-26.077 12.765l-75.721 22.528c-8.024 2.336-16.549 3.504-25.575 3.504-21.062 0-39.449-6.174-55.162-18.523-15.713-12.348-26.244-28.534-31.592-48.559L621.823 287.225a85.096 85.096 0 0 1-3.009-22.528ZM166.489 844.905c3.678 0 6.687-1.252 9.027-3.755 2.34-2.503 3.51-5.59 3.51-9.261V191.107c0-3.671-1.17-6.758-3.51-9.261-2.34-2.503-5.349-3.755-9.027-3.755H89.263c-3.678 0-6.686 1.252-9.026 3.755s-3.51 5.59-3.51 9.261v640.782c0 3.671 1.17 6.758 3.51 9.261 2.34 2.503 5.349 3.755 9.026 3.755h77.226Zm307.902 0c3.678 0 6.77-1.252 9.277-3.755 2.508-2.503 3.761-5.59 3.761-9.261V191.107c0-3.671-1.253-6.758-3.761-9.261-2.507-2.503-5.599-3.755-9.277-3.755h-76.725c-3.677 0-6.769 1.252-9.277 3.755-2.507 2.503-3.761 5.59-3.761 9.261v640.782c0 3.337 1.337 6.341 4.012 9.011 2.675 2.67 5.684 4.005 9.026 4.005h76.725Zm471.883-35.043c0-1.669-.168-2.837-.502-3.504L797.337 239.166a41.725 41.725 0 0 0-2.256-4.756c-.836-1.502-2.089-2.586-3.761-3.254-.669-.333-1.755-.668-3.26-1.001-1.504-.333-2.59-.501-3.259-.501-2.34 0-7.188 1.002-14.543 3.004-7.354 2.002-15.378 4.338-24.07 7.009a2896.627 2896.627 0 0 1-24.823 7.509c-7.856 2.336-13.289 4.005-16.298 5.006-2.675.668-4.847 2.169-6.519 4.505-1.672 2.336-2.507 4.839-2.507 7.509 0 1.002 2.006 9.429 6.017 25.281 4.012 15.853 9.277 36.378 15.797 61.575 6.519 25.198 13.957 53.899 22.315 86.105 8.357 32.207 17.05 65.33 26.076 99.372a32469.262 32469.262 0 0 1 26.578 100.873c8.693 33.207 16.716 63.494 24.071 90.86 7.354 27.367 13.539 50.645 18.554 69.836 5.015 19.19 8.191 31.455 9.528 36.794 1.672 6.341 5.85 9.512 12.537 9.512 1.672 0 6.268-1.001 13.79-3.004 7.522-2.002 15.713-4.338 24.572-7.008s17.301-5.257 25.324-7.76c8.024-2.503 13.372-4.088 16.047-4.755 2.675-.668 4.847-2.17 6.519-4.506 1.672-2.336 2.508-4.839 2.508-7.509Z"/>
  </g>
  <defs>
    <clipPath id="a">
      <path fill="#fff" d="M0 0h1024v1024H0z"/>
    </clipPath>
  </defs>
</svg>

<svg width="1024" height="1024" viewBox="0 0 1024 1024" fill="none" xmlns="http://www.w3.org/2000/svg">
<g clip-path="url(#clip0_47_1327)">
<mask id="mask0_47_1327" style="mask-type:luminance" maskUnits="userSpaceOnUse" x="-1" y="102" width="1025" height="820">
<path d="M1023.5 102H-0.5V922H1023.5V102Z" fill="white"/>
</mask>
<g mask="url(#mask0_47_1327)">
<path d="M89.263 921.499C76.8934 921.499 65.276 919.163 54.4109 914.491C43.5457 909.818 34.0178 903.394 25.8271 895.217C17.6364 887.04 11.201 877.528 6.52057 866.682C1.84019 855.836 -0.5 844.238 -0.5 831.89V191.108C-0.5 178.76 1.84019 167.162 6.52057 156.316C11.201 145.47 17.6364 135.958 25.8271 127.781C34.0178 119.604 43.5457 113.18 54.4109 108.508C65.276 103.835 76.8934 101.499 89.263 101.499H166.489C178.858 101.499 190.476 103.835 201.341 108.508C212.206 113.18 221.734 119.604 229.925 127.781C238.116 135.958 244.551 145.47 249.232 156.316C253.912 167.162 256.252 178.76 256.252 191.108V831.89C256.252 844.238 253.912 855.836 249.232 866.682C244.551 877.528 238.116 887.04 229.925 895.217C221.734 903.394 212.206 909.818 201.341 914.491C190.476 919.163 178.858 921.499 166.489 921.499H89.263ZM397.666 921.499C385.297 921.499 373.679 919.163 362.814 914.491C351.95 909.818 342.422 903.394 334.231 895.217C326.04 887.04 319.521 877.528 314.673 866.682C309.826 855.836 307.402 844.238 307.402 831.89V191.108C307.402 178.76 309.826 167.162 314.673 156.316C319.521 145.47 326.04 135.958 334.231 127.781C342.422 119.604 351.95 113.18 362.814 108.508C373.679 103.835 385.297 101.499 397.666 101.499H474.391C486.761 101.499 498.379 103.835 509.243 108.508C520.108 113.18 529.636 119.604 537.827 127.781C546.018 135.958 552.453 145.47 557.134 156.316C561.814 167.162 564.154 178.76 564.154 191.108V831.89C564.154 844.238 561.814 855.836 557.134 866.682C552.453 877.528 546.018 887.04 537.827 895.217C529.636 903.394 520.108 909.818 509.243 914.491C498.379 919.163 486.761 921.499 474.391 921.499H397.666ZM618.814 264.698C618.814 254.686 620.402 245.174 623.578 236.163C626.755 227.152 631.184 218.809 636.867 211.133C642.551 203.456 649.321 196.865 657.177 191.359C665.033 185.852 673.808 181.597 683.504 178.593L759.727 156.066C767.751 153.73 776.108 152.561 784.801 152.561C794.83 152.561 804.525 154.23 813.886 157.567C823.246 160.904 831.856 165.494 839.712 171.334C847.568 177.174 854.254 184.183 859.77 192.36C865.286 200.537 869.381 209.631 872.056 219.643L1020.49 786.835C1022.5 794.511 1023.5 802.187 1023.5 809.863C1023.5 819.875 1021.92 829.387 1018.74 838.398C1015.56 847.409 1011.13 855.669 1005.45 863.178C999.763 870.687 992.91 877.195 984.887 882.702C976.863 888.208 968.171 892.464 958.81 895.467L883.089 917.995C875.065 920.331 866.54 921.499 857.514 921.499C836.452 921.499 818.065 915.325 802.352 902.976C786.639 890.628 776.108 874.442 770.76 854.417L621.823 287.226C619.817 279.884 618.814 272.374 618.814 264.698ZM166.489 844.906C170.167 844.906 173.176 843.654 175.516 841.151C177.856 838.648 179.026 835.561 179.026 831.89V191.108C179.026 187.437 177.856 184.35 175.516 181.847C173.176 179.344 170.167 178.092 166.489 178.092H89.263C85.5855 178.092 82.5767 179.344 80.2365 181.847C77.8964 184.35 76.7262 187.437 76.7262 191.108V831.89C76.7262 835.561 77.8964 838.648 80.2365 841.151C82.5767 843.654 85.5855 844.906 89.263 844.906H166.489ZM474.391 844.906C478.069 844.906 481.161 843.654 483.668 841.151C486.176 838.648 487.429 835.561 487.429 831.89V191.108C487.429 187.437 486.176 184.35 483.668 181.847C481.161 179.344 478.069 178.092 474.391 178.092H397.666C393.989 178.092 390.897 179.344 388.389 181.847C385.882 184.35 384.628 187.437 384.628 191.108V831.89C384.628 835.227 385.965 838.231 388.64 840.901C391.315 843.571 394.324 844.906 397.666 844.906H474.391ZM946.274 809.863C946.274 808.194 946.106 807.026 945.772 806.359L797.337 239.167C796.668 237.498 795.916 235.913 795.081 234.411C794.245 232.909 792.992 231.825 791.32 231.157C790.651 230.824 789.565 230.489 788.06 230.156C786.556 229.823 785.47 229.655 784.801 229.655C782.461 229.655 777.613 230.657 770.258 232.659C762.904 234.661 754.88 236.997 746.188 239.668C737.495 242.338 729.221 244.841 721.365 247.177C713.509 249.513 708.076 251.182 705.067 252.183C702.392 252.851 700.22 254.352 698.548 256.688C696.876 259.024 696.041 261.527 696.041 264.197C696.041 265.199 698.047 273.626 702.058 289.478C706.07 305.331 711.335 325.856 717.855 351.053C724.374 376.251 731.812 404.952 740.17 437.158C748.527 469.365 757.22 502.488 766.246 536.53C775.273 570.571 784.132 604.195 792.824 637.403C801.517 670.61 809.54 700.897 816.895 728.263C824.249 755.63 830.434 778.908 835.449 798.099C840.464 817.289 843.64 829.554 844.977 834.893C846.649 841.234 850.827 844.405 857.514 844.405C859.186 844.405 863.782 843.404 871.304 841.401C878.826 839.399 887.017 837.063 895.876 834.393C904.735 831.723 913.177 829.136 921.2 826.633C929.224 824.13 934.572 822.545 937.247 821.878C939.922 821.21 942.094 819.708 943.766 817.372C945.438 815.036 946.274 812.533 946.274 809.863Z" fill="white"/>
</g>
</g>
<defs>
<clipPath id="clip0_47_1327">
<rect width="1024" height="1024" fill="white"/>
</clipPath>
</defs>
</svg>
